svgs/sharp-light/divide.svg

<svg xmlns="http://www.w3.org/2000/svg" viewBox="0 0 448 512"><!--! Font Awesome Pro 6.6.0 by @fontawesome - https://fontawesome.com License - https://fontawesome.com/license (Commercial License) Copyright 2024 Fonticons, Inc. --><path d="M192 96l0 64 64 0 0-64-64 0zM160 64l32 0 64 0 32 0 0 32 0 64 0 32-32 0-64 0-32 0 0-32 0-64 0-32zM432 272l-16 0L32 272l-16 0 0-32 16 0 384 0 16 0 0 32zM256 352l-64 0 0 64 64 0 0-64zm-64-32l64 0 32 0 0 32 0 64 0 32-32 0-64 0-32 0 0-32 0-64 0-32 32 0z"/></svg>

<svg xmlns="http://www.w3.org/2000/svg" viewBox="0 0 448 512"><!--! Font Awesome Pro 6.4.2 by @fontawesome - https://fontawesome.com License - https://fontawesome.com/license (Commercial License) Copyright 2023 Fonticons, Inc. --><path d="M192 96v64h64V96H192zM160 64h32 64 32V96v64 32H256 192 160V160 96 64zM432 272H416 32 16V240H32 416h16v32zM256 352H192v64h64V352zm-64-32h64 32v32 64 32H256 192 160V416 352 320h32z"/></svg>
